icons/Map/train-line.svg

<svg viewBox="0 0 24 24" xmlns="http://www.w3.org/2000/svg"><path d="M17.2 20L19 21.5V22H5V21.5L6.8 20H5C3.89543 20 3 19.1046 3 18V7C3 4.79086 4.79086 3 7 3H17C19.2091 3 21 4.79086 21 7V18C21 19.1046 20.1046 20 19 20H17.2ZM7 5C5.89543 5 5 5.89543 5 7V18H19V7C19 5.89543 18.1046 5 17 5H7ZM12 17C10.8954 17 10 16.1046 10 15C10 13.8954 10.8954 13 12 13C13.1046 13 14 13.8954 14 15C14 16.1046 13.1046 17 12 17ZM6 7H18V11H6V7Z"/></svg>

<svg xmlns="http://www.w3.org/2000/svg" viewBox="0 0 24 24">
    <g>
        <path fill="none" d="M0 0h24v24H0z"/>
        <path d="M17.2 20l1.8 1.5v.5H5v-.5L6.8 20H5a2 2 0 0 1-2-2V7a4 4 0 0 1 4-4h10a4 4 0 0 1 4 4v11a2 2 0 0 1-2 2h-1.8zM7 5a2 2 0 0 0-2 2v11h14V7a2 2 0 0 0-2-2H7zm5 12a2 2 0 1 1 0-4 2 2 0 0 1 0 4zM6 7h12v4H6V7z"/>
    </g>
</svg>
